svg/fluentui-system-icons/ic_fluent_iot_alert_16_filled.svg

<svg width="16" height="16" viewBox="0 0 16 16" fill="none" xmlns="http://www.w3.org/2000/svg">
<path d="M12 3.5C12 4.32843 11.3284 5 10.5 5C10.4149 5 10.3314 4.99291 10.2502 4.97929L9.62668 6.10154C9.71433 6.17671 9.79672 6.25785 9.87321 6.34433C8.4744 6.96747 7.49917 8.36992 7.49917 10V10.4498C6.94446 10.337 6.4565 10.0406 6.10154 9.62668L4.97929 10.2502C4.99291 10.3314 5 10.4149 5 10.5C5 11.3284 4.32843 12 3.5 12C2.67157 12 2 11.3284 2 10.5C2 9.67157 2.67157 9 3.5 9C3.88102 9 4.22886 9.14206 4.49344 9.37611L5.61534 8.75283C5.54041 8.51525 5.5 8.26234 5.5 8C5.5 7.49046 5.65244 7.01652 5.9142 6.6213L5.14671 5.85381C4.95089 5.94752 4.73157 6 4.5 6C3.67157 6 3 5.32843 3 4.5C3 3.67157 3.67157 3 4.5 3C5.32843 3 6 3.67157 6 4.5C6 4.73157 5.94752 4.95089 5.85381 5.14671L6.6213 5.9142C7.01652 5.65244 7.49046 5.5 8 5.5C8.26234 5.5 8.51525 5.54041 8.75283 5.61534L9.37611 4.49344C9.14206 4.22886 9 3.88102 9 3.5C9 2.67157 9.67157 2 10.5 2C11.3284 2 12 2.67157 12 3.5ZM8.49936 10C8.49936 8.34326 9.84262 7 11.4994 7C13.1561 7 14.4994 8.34326 14.4994 10V12L15.8192 13.1187C16.1747 13.4197 15.9618 14 15.4959 14H7.50278C7.03745 14 6.82456 13.4197 7.17954 13.1187L8.49936 12.0002V10ZM11.4994 16C10.8465 16 10.2909 15.5825 10.0848 15H12.9139C12.7083 15.5825 12.1527 16 11.4994 16Z" fill="#212121"/>
</svg>

<svg xmlns="http://www.w3.org/2000/svg" width="16" height="16"><path d="M12 3.5a1.5 1.5 0 0 1-1.75 1.48l-.623 1.122c.087.075.17.156.246.242A4.001 4.001 0 0 0 7.5 10v.45a2.498 2.498 0 0 1-1.397-.823l-1.123.623a1.5 1.5 0 1 1-.486-.874l1.122-.623a2.499 2.499 0 0 1 .3-2.132l-.768-.767a1.5 1.5 0 1 1 .707-.707l.767.767a2.488 2.488 0 0 1 2.132-.299l.623-1.122A1.5 1.5 0 1 1 12 3.5ZM8.5 10a3 3 0 0 1 6 0v2l1.32 1.119a.5.5 0 0 1-.324.881H7.503a.5.5 0 0 1-.323-.881L8.5 12v-2Zm3 6a1.501 1.501 0 0 1-1.415-1h2.829a1.5 1.5 0 0 1-1.415 1Z"/></svg>
